Hatter-kde-dark/actions/24/description.svg

<?xml version="1.0" encoding="UTF-8"?>
<svg viewBox="0 0 24 24" xmlns="http://www.w3.org/2000/svg">
 <defs id="defs3051">
  <style id="current-color-scheme" type="text/css">.ColorScheme-Text {
        color:#dedede;
      }</style>
 </defs>
 <g transform="translate(1,1)">
  <path class="ColorScheme-Text" d="m3 3v2h5v-2h-5zm7 0v1h9v-1h-9zm-5 3v1h14v-1h-14zm-2 3v2h5v-2h-5zm7 0v1h9v-1h-9zm-5 3v1h14v-1h-14zm0 3v1h14v-1h-14zm12 3v1h2v-1h-2z" fill="currentColor"/>
 </g>
</svg>

<svg xmlns="http://www.w3.org/2000/svg" viewBox="0 0 24 24">
  <defs id="defs3051">
    <style type="text/css" id="current-color-scheme">
      .ColorScheme-Text {
        color:#dedede;
      }
      </style>
  </defs><g transform="translate(1,1)">
 <path 
    style="fill:currentColor;fill-opacity:1;stroke:none" 
    d="M 3 3 L 3 5 L 8 5 L 8 3 L 3 3 z M 10 3 L 10 4 L 19 4 L 19 3 L 10 3 z M 5 6 L 5 7 L 19 7 L 19 6 L 5 6 z M 3 9 L 3 11 L 8 11 L 8 9 L 3 9 z M 10 9 L 10 10 L 19 10 L 19 9 L 10 9 z M 5 12 L 5 13 L 19 13 L 19 12 L 5 12 z M 5 15 L 5 16 L 19 16 L 19 15 L 5 15 z M 17 18 L 17 19 L 19 19 L 19 18 L 17 18 z "
    class="ColorScheme-Text"
    />  
</g></svg>
